X:14011
T:Nutting Girl
R:Reel
C:Trad.
O:England, Morris
Z:Paul Hardy's Session Tunebook 2015 (see www.paulhardy.net). Creative Commons cc by-nc-sa licenced.
M:2/2
L:1/8
Q:1/2=90
K:G
"G" G2 GA BAGB|"D" d2dc A2F2|"G" G2 Bc d2g2|d6 B2|"C" cdec "Am" A2 c2|"G" BcdB "Em"G2 B2|"C" c2 A2 "D"F2 D2|"G" G4 G2D2:|
"G" G2 g2 gefg|"D" f2 d2 d2 Bc|"G" d2 ef g2 fe|"D" f4 f3e|"G" d2g2 g3f|"C"e2 d2 "G" d3 B|"Am" A2B2 c2 d2|"C" efge "D" dBcA|
"G" G2 GA BAGB|"D" d2dc A2F2|"G" G2 Bc d2g2|d4- d2B2|"C" cdec "Am"A2 c2|"G" BcdB "Em"G2 AB|"C" c2 A2 "D"F2 D2|"G" G4 G2|]

